remix/Finance/stock-line.svg

<svg viewBox="0 0 24 24" fill="currentColor" xmlns="http://www.w3.org/2000/svg"><path d="M8.00488 5.00281H11.0049V14.0028H8.00488V17.0028H6.00488V14.0028H3.00488V5.00281H6.00488V2.00281H8.00488V5.00281ZM5.00488 7.00281V12.0028H9.00488V7.00281H5.00488ZM18.0049 10.0028H21.0049V19.0028H18.0049V22.0028H16.0049V19.0028H13.0049V10.0028H16.0049V7.00281H18.0049V10.0028ZM15.0049 12.0028V17.0028H19.0049V12.0028H15.0049Z"/></svg>

<svg viewBox="0 0 24 24" xmlns="http://www.w3.org/2000/svg"><path fill="none" d="M0 0h24v24H0Z"/><path d="M8 5h3v9H8v3H6v-3H3V5h3V2h2v3ZM5 7v5h4V7H5Zm13 3h3v9h-3v3h-2v-3h-3v-9h3V7h2v3Zm-3 2v5h4v-5h-4Z"/></svg>
